!!!COM: Anonymous
!!!OTL@@POL: Żałosna Matko
!!!TXO: Polish
!!!ODT: 
!!!GTL: Hymnbook L 1642
!!!ARL: Biblioteka Diecezjalna w Sandomierzu 
!!!voices:	4
**kern	**text	**kern	**text	**kern	**text	**kern	**text
*staff4	*staff4	*staff3	*staff3	*staff2	*staff2	*staff1	*staff1
*I"Basso	*	*I"Canto III	*	*I"Canto II	*	*I"Canto I	*
=1-	=1-	=1-	=1-	=1-	=1-	=1-	=1-
*clefF4	*	*clefG2	*	*clefG2	*	*clefG2	*
*k[b-]	*	*k[b-]	*	*k[b-]	*	*k[b-]	*
*met(c|)	*	*met(c|)	*	*met(c|)	*	*met(c|)	*
*M2/2	*	*M2/2	*	*M2/2	*	*M2/2	*
1D	Ża-	1f	Ża-	1a	Ża-	1dd	Ża-
=2	=2	=2	=2	=2	=2	=2	=2
2D\	-ło-	2f/	-ło-	2a/	-ło-	2dd\	-ło-
2D\	-sna	2f/	-sna	2a/	-sna	2dd\	-sna
=3	=3	=3	=3	=3	=3	=3	=3
[1E-	Ma-	[1g	Ma-	[1g	Ma-	1b-	Ma-
=4	=4	=4	=4	=4	=4	=4	=4
1E-]	.	1g]	.	1g]	.	1cc	.
=5	=5	=5	=5	=5	=5	=5	=5
1D	-tko	1f	-tko	1a	-tko	1dd	-tko
=6	=6	=6	=6	=6	=6	=6	=6
2r	.	2r	.	2r	.	2r	.
2G\	Jak-	2g/	Jak-	2b-\	Jak-	2dd\	Jak-
=7	=7	=7	=7	=7	=7	=7	=7
2E\	-że	2g/	-że	2g/	-że	2cc\	-że
[2F\	ser-	[2a/	ser-	[2cc\	ser-	[2ff\	ser-
=8	=8	=8	=8	=8	=8	=8	=8
2F\]	.	2a/]	.	2cc\]	.	2ff\]	.
2D\	-ca	2b-\	-ca	2dd\	-ca	2ff\	-ca
=9	=9	=9	=9	=9	=9	=9	=9
[1C	twe-	[1cc	twe-	[1ee-	twe-	[1gg	twe-
=10	=10	=10	=10	=10	=10	=10	=10
1C]	.	1cc]	.	1ee-]	.	1gg]	.
=11	=11	=11	=11	=11	=11	=11	=11
1GG	-go	1b-	-go	1dd	-go	1gg	-go
=12	=12	=12	=12	=12	=12	=12	=12
2r	.	2r	.	2r	.	2r	.
2D\	Do-	2f/	Do-	2a/	Do-	2dd\	Do-
=13	=13	=13	=13	=13	=13	=13	=13
2D\	-tąd	2f/	-tąd	2a/	-tąd	2dd\	-tąd
2D\	stać	2f/	stać	2a/	stać	2dd\	stać
=14	=14	=14	=14	=14	=14	=14	=14
[1E-	mo-	[1g	mo-	[1g	mo-	1b-	mo-
=15	=15	=15	=15	=15	=15	=15	=15
1E-]	.	1g]	.	1g]	.	1cc	.
=16	=16	=16	=16	=16	=16	=16	=16
1D	-gło	1f	-gło	1a	-gło	1dd	-gło
=17	=17	=17	=17	=17	=17	=17	=17
2r	.	2r	.	2r	.	2r	.
2G\	wi-	2g/	wi-	2b-\	wi-	2dd\	wi-
=18	=18	=18	=18	=18	=18	=18	=18
2E\	-dząc	2g/	-dząc	2g/	-dząc	2cc\	-dząc
[2F\	Sy-	[2a/	Sy-	[2cc\	Sy-	[2ff\	Sy-
=19	=19	=19	=19	=19	=19	=19	=19
2F\]	.	2a/]	.	2cc\]	.	2ff\]	.
2D\	-na	2b-\	-na	2dd\	-na	2ff\	-na
=20	=20	=20	=20	=20	=20	=20	=20
[1C	swe-	2.cc\	swe-	2.ee-\	swe-	2.gg\	swe-
.	.	4b-\	.	4dd\	.	4ff\	.
=21	=21	=21	=21	=21	=21	=21	=21
1C]	.	4a/	.	2.cc\	.	2ee-\	.
.	.	4g/	.	.	.	.	.
.	.	[2g/	.	.	.	4dd\	.
.	.	.	.	4b-\	.	4cc\	.
=22	=22	=22	=22	=22	=22	=22	=22
1D	.	2g/]	.	2.a/	.	1dd	.
.	.	4f#i/	.	.	.	.	.
.	.	4e/	.	4g/	.	.	.
=23	=23	=23	=23	=23	=23	=23	=23
1D	.	1f#i	.	1a	.	[1dd	-go
=24	=24	=24	=24	=24	=24	=24	=24
1GG	-go	1g	-go	1g	-go	1dd]	.
=25	=25	=25	=25	=25	=25	=25	=25
2r	.	2r	.	2r	.	2r	.
2G\	A	2g/	A	2b-\	A	2dd\	A
=26	=26	=26	=26	=26	=26	=26	=26
2F\	On	2a/	On	2cc\	On	2ff\	On
2D\	na	2a/	na	2dd\	na	2ff\	na
=27	=27	=27	=27	=27	=27	=27	=27
1G	krzy-	1g	krzy-	1bn	krzy-	1dd	krzy-
=28	=28	=28	=28	=28	=28	=28	=28
1C	-żu	1g	-żu	1cc	-żu	1ee	-żu
=29	=29	=29	=29	=29	=29	=29	=29
2r	.	2r	.	2r	.	2r	.
2F\	ża-	2a/	ża-	2cc\	ża-	2ff\	ża-
=30	=30	=30	=30	=30	=30	=30	=30
2D\	-ło-	2a/	-ło-	2dd\	-ło-	2ff\	-ło-
[2A\	-śnie	[2a/	-śnie	[2cc\	-śnie	[2ee\	-śnie
=31	=31	=31	=31	=31	=31	=31	=31
2A\]	.	2a/]	.	2cc\]	.	2ee\]	.
2B-\	wo-	2g/	wo-	2dd\	wo-	2dd\	wo-
=32	=32	=32	=32	=32	=32	=32	=32
1A	-ła-	1a	-ła-	1cc#	-ła-	1ee	-ła-
=33	=33	=33	=33	=33	=33	=33	=33
1D	-jąc	1a	-jąc	1dd	-jąc	1dd	-jąc
=34	=34	=34	=34	=34	=34	=34	=34
2r	.	2r	.	2r	.	2r	.
2D\	wzdy-	2a/	wzdy-	2dd\	wzdy-	2ff\	wzdy-
=35	=35	=35	=35	=35	=35	=35	=35
2E-\	-cha	2g/	-cha	2b-\	-cha	2ee-\	-cha
2C/	ko-	[2g/	ko-	2cc\	ko-	2ee-\	ko-
=36	=36	=36	=36	=36	=36	=36	=36
1D	-na-	2g/]	.	1a	-na-	1dd	-na-
.	.	2f#i/	-na-	.	.	.	.
=37	=37	=37	=37	=37	=37	=37	=37
1GG	-jąc.	1g	-jąc.	1g	-jąc.	1dd	-jąc.
==	==	==	==	==	==	==	==
*-	*-	*-	*-	*-	*-	*-	*-
!!!GTL: Hymnbook L 1642
!!!EFL: 3/39
!!!YEM: Creative Commons CC/BY/NC/SA 4.0
!!!ENC: Marcin Konik
!!!END: 2015-02-12 
!!!EED: Marcin Konik
!!!EEV: 
!!!ONB: Translated from MusicXML and edited by Marcin Konik
!!!CharacterEncoding: utf-8
!!!RDF**kern: i=editorial accidental
!!muse2ps: z14jc180F
!!title: @{OTL}, @{GTL}: @{pag}, ed. @{ENC}
